**kern	**kern	**dynam
*part1	*part1	*part1
*staff2	*staff1	*
*I"Piano	*	*
*clefF4	*clefG2	*
*k[]	*k[]	*
*M3/4	*M3/4	*
=1	=1	=1
!	!LO:TX:b:i:t=legato	!
4r	4G 4e 4g	p
=	=	=
4r	2G 2e 2g	.
4CC 4C	.	.
4C 4E	4G 4c 4e	.
=	=	=
4r	2c 2g 2cc	.
4EEE 4EE	.	.
4E 4G	4c 4e 4g	.
=	=	=
4r	2g 2cc 2ee	.
4GGG 4GG	.	.
4G 4B	4f 4b 4dd	.
=	=	=
4r	4f 4b 4dd	.
4CC 4C	4e 4cc	<
4E 4G	4c 4e 4cc	.
=	=	=
4r	2c 2g 2b 2cc	[ mp >
4FFF 4FF	.	.
4C 4F	4c 4f 4a 4cc	.
=	=	=
4r	2c 2e 2g 2cc	] p
4CC 4C	.	.
4E 4G	4e 4g 4cc	.
=	=	=
*-	*-	*-
!!!system-decoration: {(s1,s2)}
